dist/icons/mobile.svg

<?xml version="1.0" encoding="utf-8"?>
<!-- Generated by IcoMoon.io -->
<!DOCTYPE svg PUBLIC "-//W3C//DTD SVG 1.1//EN" "http://www.w3.org/Graphics/SVG/1.1/DTD/svg11.dtd">
<svg version="1.1" xmlns="http://www.w3.org/2000/svg" xmlns:xlink="http://www.w3.org/1999/xlink" width="32" height="32" viewBox="0 0 32 32">
<path d="M22.203 0h-12.406c-1.797 0-3.266 1.469-3.266 3.266v25.469c0 1.795 1.469 3.266 3.266 3.266h12.406c1.797 0 3.266-1.47 3.266-3.266v-25.469c0-1.797-1.469-3.266-3.266-3.266zM16 30.694c-1.261 0-2.285-0.731-2.285-1.634s1.024-1.634 2.285-1.634c1.262 0 2.285 0.731 2.285 1.634s-1.022 1.634-2.285 1.634zM22.856 25.795h-13.714v-21.55h13.714v21.55z"></path>
</svg>

<svg xmlns="http://www.w3.org/2000/svg" width="32" height="32" viewBox="0 0 32 32"><path d="M22.203 0H9.797C8 0 6.53 1.47 6.53 3.266v25.47C6.53 30.53 8 32 9.798 32h12.406c1.797 0 3.266-1.47 3.266-3.265V3.265C25.47 1.47 24 0 22.202 0zM16 30.694c-1.26 0-2.285-.73-2.285-1.634S14.74 27.426 16 27.426c1.262 0 2.285.73 2.285 1.634S17.263 30.694 16 30.694zm6.856-4.9H9.142V4.245h13.714v21.55z"/></svg>
